**harm	**harte	**timestamp	**phrase	**leadinstrument	**kern
*M4/4	*M4/4	*	*	*	*
*E:	*E:	*	*	*	*E:
1r;	N	0	.	r	1r;
=1	=1	=1	=1	=1	=1
*>A_intro	*>A_intro	*>A_intro	*>A_intro	*>A_intro	*>A_intro
2I	E:maj	0.279	newline	keyboard	2E 2g# 2b
2vi7	C#:min7	2.504	.	keyboard	2C# 2e 2g# 2b
=2	=2	=2	=2	=2	=2
2ii7	F#:min7	4.73	.	keyboard	2F# 2a 2cc# 2ee
2V7	B:7	6.955	.	keyboard	2B 2dd# 2ff# 2aa
=3	=3	=3	=3	=3	=3
2I	E:maj	9.181	.	keyboard	2E 2g# 2b
2-II	F:maj	11.406	.	keyboard	2F 2a 2cc
=4	=4	=4	=4	=4	=4
2I	E:maj	13.632	.	keyboard	2E 2g# 2b
4ii7	F#:min7	15.857	.	keyboard	4F# 4a 4cc# 4ee
4V7	B:7	16.97	.	keyboard	4B 4dd# 4ff# 4aa
=5	=5	=5	=5	=5	=5
*>A_verse	*>A_verse	*>A_verse	*>A_verse	*>A_verse	*>A_verse
2I7	E:maj7	18.083	newline	voice	2E 2g# 2b 2dd#
2vi7	C#:min7	20.225	.	voice	2C# 2e 2g# 2b
=6	=6	=6	=6	=6	=6
2ii7	F#:min7	22.368	.	voice	2F# 2a 2cc# 2ee
2V7	B:7	24.51	.	voice	2B 2dd# 2ff# 2aa
=7	=7	=7	=7	=7	=7
2I7	E:maj7	26.653	.	voice	2E 2g# 2b 2dd#
2vi7	C#:min7	28.795	.	voice	2C# 2e 2g# 2b
=8	=8	=8	=8	=8	=8
2ii7	F#:min7	30.937	.	voice	2F# 2a 2cc# 2ee
2V7	B:7	33.08	.	voice	2B 2dd# 2ff# 2aa
=9	=9	=9	=9	=9	=9
2I7	E:maj7	35.222	.	voice	2E 2g# 2b 2dd#
2vi7	C#:min7	37.365	.	voice	2C# 2e 2g# 2b
=10	=10	=10	=10	=10	=10
2ii7	F#:min7	39.507	.	voice	2F# 2a 2cc# 2ee
2V7	B:7	41.65	.	voice	2B 2dd# 2ff# 2aa
=11	=11	=11	=11	=11	=11
2I7	E:maj7	43.792	.	voice	2E 2g# 2b 2dd#
2vi7	C#:min7	45.934	.	voice	2C# 2e 2g# 2b
=12	=12	=12	=12	=12	=12
2ii7	F#:min7	48.077	.	voice	2F# 2a 2cc# 2ee
2V7	B:7	50.219	.	voice	2B 2dd# 2ff# 2aa
=13	=13	=13	=13	=13	=13
*>A_verse	*>A_verse	*>A_verse	*>A_verse	*>A_verse	*>A_verse
2I7	E:maj7	52.362	newline	.	2E 2g# 2b 2dd#
2vi7	C#:min7	54.551	.	.	2C# 2e 2g# 2b
=14	=14	=14	=14	=14	=14
2ii7	F#:min7	56.74	.	.	2F# 2a 2cc# 2ee
2V7	B:7	58.929	.	.	2B 2dd# 2ff# 2aa
=15	=15	=15	=15	=15	=15
2I7	E:maj7	61.118	.	.	2E 2g# 2b 2dd#
2vi7	C#:min7	63.307	.	.	2C# 2e 2g# 2b
=16	=16	=16	=16	=16	=16
2ii7	F#:min7	65.496	.	.	2F# 2a 2cc# 2ee
2V7	B:7	67.686	.	.	2B 2dd# 2ff# 2aa
=17	=17	=17	=17	=17	=17
2I7	E:maj7	69.875	.	.	2E 2g# 2b 2dd#
2vi7	C#:min7	72.064	.	.	2C# 2e 2g# 2b
=18	=18	=18	=18	=18	=18
2ii7	F#:min7	74.253	.	.	2F# 2a 2cc# 2ee
2V7	B:7	76.442	.	.	2B 2dd# 2ff# 2aa
=19	=19	=19	=19	=19	=19
2I	E:maj	78.631	newline	.	2E 2g# 2b
2-II	F:maj	80.805	.	.	2F 2a 2cc
=20	=20	=20	=20	=20	=20
1Im7	E:7	82.978	.	.	1E 1g# 1b 1dd#
=21	=21	=21	=21	=21	=21
*>B_bridge	*>B_bridge	*>B_bridge	*>B_bridge	*>B_bridge	*>B_bridge
2IV	A:maj	87.325	newline	.	2A 2cc# 2ee
2V7	B:7	89.505	.	.	2B 2dd# 2ff# 2aa
=22	=22	=22	=22	=22	=22
1I7	E:maj7	91.686	.	.	1E 1g# 1b 1dd#
=23	=23	=23	=23	=23	=23
2IV	A:maj	96.046	.	.	2A 2cc# 2ee
2V7	B:7	98.226	.	.	2B 2dd# 2ff# 2aa
=24	=24	=24	=24	=24	=24
1I7	E:maj7	100.407	.	.	1E 1g# 1b 1dd#
=25	=25	=25	=25	=25	=25
2IV	A:maj	104.767	newline	.	2A 2cc# 2ee
2V7	B:7	106.927	.	.	2B 2dd# 2ff# 2aa
=26	=26	=26	=26	=26	=26
4I7	E:maj7	109.086	.	.	4E 4g# 4b 4dd#
4Id	E:maj/7	110.166	.	.	4e 4g# 4b
2vi	C#:min	111.246	.	.	2C# 2e 2g#
=27	=27	=27	=27	=27	=27
4II7	F#:7	113.405	newline	.	4F# 4a# 4cc# 4ee
4II7d	F#:7/b7	114.474	.	.	4f# 4a# 4cc# 4E
4II7g	F#:7/6	115.542	.	.	4F# 4a# 4cc# 4ee
4II7c	F#:7/5	116.61	.	.	4f# 4a# 4C# 4ee
=28	=28	=28	=28	=28	=28
4V7	B:7	117.679	.	.	4B 4dd# 4ff# 4aa
4V7d	B:7/b7	118.747	.	.	4b 4dd# 4ff# 4A
4V7g	B:7/6	119.815	.	.	4B 4dd# 4ff# 4aa
4V7c	B:7/5	120.883	.	.	4b 4dd# 4F# 4aa
=29	=29	=29	=29	=29	=29
*>A_verse	*>A_verse	*>A_verse	*>A_verse	*>A_verse	*>A_verse
2I7	E:maj7	121.952	newline	.	2E 2g# 2b 2dd#
2vi7	C#:min7	124.135	.	.	2C# 2e 2g# 2b
=30	=30	=30	=30	=30	=30
2ii7	F#:min7	126.318	.	.	2F# 2a 2cc# 2ee
2V7	B:7	128.501	.	.	2B 2dd# 2ff# 2aa
=31	=31	=31	=31	=31	=31
2I7	E:maj7	130.684	.	.	2E 2g# 2b 2dd#
2vi7	C#:min7	132.867	.	.	2C# 2e 2g# 2b
=32	=32	=32	=32	=32	=32
2ii7	F#:min7	135.05	.	.	2F# 2a 2cc# 2ee
2V7	B:7	137.233	.	.	2B 2dd# 2ff# 2aa
=33	=33	=33	=33	=33	=33
2I7	E:maj7	139.416	.	.	2E 2g# 2b 2dd#
2vi7	C#:min7	141.599	.	.	2C# 2e 2g# 2b
=34	=34	=34	=34	=34	=34
2ii7	F#:min7	143.782	.	.	2F# 2a 2cc# 2ee
2V7	B:7	145.965	.	.	2B 2dd# 2ff# 2aa
=35	=35	=35	=35	=35	=35
2I7	E:maj7	148.148	newline	.	2E 2g# 2b 2dd#
2vi7	C#:min7	149.916	.	.	2C# 2e 2g# 2b
=36	=36	=36	=36	=36	=36
2ii7	F#:min7	151.684	.	.	2F# 2a 2cc# 2ee
4V7	B:9	153.451	.	.	4B 4dd# 4ff# 4aa
4V7	B:7(b9)	154.335	.	.	4B 4dd# 4ff# 4aa
1r;	N	155.219	.	r	1r;
=37	=37	=37	=37	=37	=37
1I7	E:maj7	158.755	newline	voice	1E 1g# 1b 1dd#
1r;	N	176.789	.	r	1r;
1r;	N	180.82	.	r	1r;
*-	*-	*-	*-	*-	*-
!!!OTL: Daddy's Home
!!!COC: Cliff Richard
!!!BillboardChartDate: 1982/03/27
!!!BillboardPeak: 23
!!!BillboardWeeksOnChart: 13
!!!SampleTargetRank: 34
!!!SampleActualRank: 34
!!!SampleID#: 1161
!!!RDF**harmony: **recip + pitch class of root + harmonic quality
!!!RDF**harte: Chris Harte's syntax, used by MIREX
!!!RDF**phrase: newline = linebreak in original McGill transcription
!!!RDF**timestamp: McGill audio timestamp in seconds
!!!RDF**leadinstrument: original McGill primary instrumentation annotation
!!!RDT: 2017/01/12/
!!!ENC: Nathaniel Condit-Schultz
!!!EST: Awating manual error checking and editing.
